img/Homezy.svg

<svg width="105" height="22" viewBox="0 0 105 22" fill="none" xmlns="http://www.w3.org/2000/svg">
<path d="M2.63578 7.08043H15.0394V9.63868H2.63578V7.08043ZM14.6001 0H17.5977V16.7449H14.6001V0ZM0 0H2.97171V16.7449H0V0Z" fill="#191A23"/>
<path d="M27.0791 17.0292C25.632 17.0292 24.34 16.7708 23.203 16.254C22.066 15.7372 21.1615 14.9791 20.4897 13.98C19.835 12.9808 19.5077 11.7663 19.5077 10.3364C19.5077 8.92375 19.835 7.71784 20.4897 6.71865C21.1615 5.70224 22.066 4.92701 23.203 4.39296C24.34 3.85892 25.632 3.59189 27.0791 3.59189C28.5262 3.59189 29.8096 3.85892 30.9294 4.39296C32.0664 4.92701 32.9622 5.70224 33.6169 6.71865C34.2715 7.71784 34.5988 8.92375 34.5988 10.3364C34.5988 11.7663 34.2715 12.9808 33.6169 13.98C32.9622 14.9791 32.0664 15.7372 30.9294 16.254C29.8096 16.7708 28.5262 17.0292 27.0791 17.0292ZM27.0791 14.6777C27.9233 14.6777 28.6899 14.514 29.379 14.1867C30.0681 13.8421 30.6193 13.3512 31.0328 12.7138C31.4462 12.0591 31.653 11.2667 31.653 10.3364C31.653 9.42334 31.4462 8.6395 31.0328 7.98486C30.6193 7.31299 30.0681 6.80479 29.379 6.46024C28.7071 6.1157 27.9405 5.94342 27.0791 5.94342C26.2522 5.94342 25.4856 6.1157 24.7793 6.46024C24.0902 6.80479 23.5303 7.30438 23.0996 7.95902C22.6862 8.61366 22.4794 9.40611 22.4794 10.3364C22.4794 11.2667 22.6862 12.0591 23.0996 12.7138C23.5131 13.3512 24.0643 13.8421 24.7534 14.1867C25.4597 14.514 26.235 14.6777 27.0791 14.6777Z" fill="#191A23"/>
<path d="M36.1293 3.87615H39.0493V16.7449H36.1293V3.87615ZM44.5018 3.59189C45.2598 3.59189 45.9575 3.69526 46.5949 3.90199C47.2323 4.10871 47.775 4.42742 48.2229 4.8581C48.688 5.27156 49.0412 5.79699 49.2824 6.4344C49.5408 7.05458 49.67 7.78675 49.67 8.63088V16.7449H46.75V9.19938C46.75 8.14852 46.4915 7.37329 45.9747 6.8737C45.4751 6.35688 44.6741 6.09847 43.5715 6.09847C42.7446 6.09847 41.9866 6.27936 41.2975 6.64113C40.6256 6.98568 40.0744 7.4422 39.6437 8.0107C39.213 8.56197 38.9632 9.16493 38.8943 9.81957L38.8685 8.42416C38.9546 7.78675 39.1441 7.18379 39.437 6.61529C39.7298 6.02956 40.1174 5.51274 40.5998 5.06483C41.0822 4.59969 41.6507 4.23792 42.3053 3.97951C42.9772 3.7211 43.7093 3.59189 44.5018 3.59189ZM54.864 3.59189C55.622 3.59189 56.3111 3.69526 56.9313 3.90199C57.5687 4.10871 58.12 4.42742 58.5851 4.8581C59.0503 5.27156 59.412 5.79699 59.6704 6.4344C59.9288 7.05458 60.058 7.78675 60.058 8.63088V16.7449H57.1122V9.19938C57.1122 8.14852 56.8538 7.37329 56.337 6.8737C55.8374 6.35688 55.0363 6.09847 53.9337 6.09847C53.1068 6.09847 52.3488 6.27936 51.6597 6.64113C50.9706 6.98568 50.4108 7.4422 49.9801 8.0107C49.5666 8.56197 49.3254 9.16493 49.2565 9.81957L49.2048 8.37247C49.291 7.75229 49.4891 7.15795 49.7992 6.58945C50.1093 6.02095 50.5055 5.51274 50.9879 5.06483C51.4875 4.59969 52.0646 4.23792 52.7192 3.97951C53.3739 3.7211 54.0888 3.59189 54.864 3.59189Z" fill="#191A23"/>
<path d="M73.0264 12.507H75.843C75.7052 13.3856 75.3521 14.1695 74.7836 14.8586C74.2323 15.5304 73.4915 16.0645 72.5612 16.4607C71.631 16.8397 70.5112 17.0292 69.2019 17.0292C67.7031 17.0292 66.3766 16.7622 65.2224 16.2281C64.0682 15.6769 63.1551 14.9016 62.4833 13.9024C61.8286 12.9033 61.5013 11.7146 61.5013 10.3364C61.5013 8.97543 61.82 7.78675 62.4574 6.77033C63.1121 5.75392 64.0079 4.97008 65.1449 4.41881C66.2819 3.86753 67.5998 3.59189 69.0986 3.59189C70.6318 3.59189 71.9152 3.86753 72.9489 4.41881C73.9997 4.95285 74.775 5.76254 75.2746 6.84786C75.7741 7.91595 75.9809 9.26829 75.8947 10.9049H64.4472C64.5333 11.6284 64.7745 12.2745 65.1707 12.843C65.567 13.4115 66.101 13.8594 66.7729 14.1867C67.4447 14.514 68.2372 14.6777 69.1502 14.6777C70.1494 14.6777 70.9849 14.4796 71.6568 14.0833C72.3459 13.6699 72.8024 13.1444 73.0264 12.507ZM69.021 5.94342C67.8324 5.94342 66.859 6.22767 66.101 6.79618C65.343 7.36468 64.852 8.09684 64.6281 8.99266H72.9747C72.8886 8.02793 72.4923 7.27854 71.786 6.74449C71.0797 6.21045 70.158 5.94342 69.021 5.94342Z" fill="#191A23"/>
<path d="M89.0238 6.22767L79.566 15.2979L79.23 14.4193H89.1788V16.7449H77.0594V14.4193L86.5689 5.32324L86.9306 6.22767H77.0594V3.87615H89.0238V6.22767Z" fill="#191A23"/>
<path d="M90.033 3.87615H93.1339L98.3796 16.2281L95.8472 16.7449L90.033 3.87615ZM104.504 3.87615L96.1831 21.9131H93.108L96.6741 14.8586L101.377 3.87615H104.504Z" fill="#191A23"/>
</svg>

<svg xmlns="http://www.w3.org/2000/svg" width="105" height="22" fill="none"><path fill="#191A23" d="M2.636 7.08h12.403V9.64H2.636zM14.6 0h2.998v16.745H14.6zM0 0h2.972v16.745H0zM27.08 17.03q-2.172-.001-3.877-.776T20.49 13.98q-.982-1.5-.982-3.644 0-2.118.982-3.617a6.5 6.5 0 0 1 2.713-2.326q1.705-.801 3.876-.801t3.85.801q1.706.801 2.688 2.326.982 1.499.982 3.617 0 2.145-.982 3.644t-2.688 2.274q-1.68.775-3.85.775m0-2.352q1.265 0 2.299-.491a4.14 4.14 0 0 0 1.654-1.473q.62-.982.62-2.378 0-1.37-.62-2.351a4.03 4.03 0 0 0-1.654-1.525q-1.008-.516-2.3-.517-1.24 0-2.3.517A4.26 4.26 0 0 0 23.1 7.96q-.62.982-.62 2.377t.62 2.378a4.14 4.14 0 0 0 1.654 1.473 5.5 5.5 0 0 0 2.326.49M36.13 3.876h2.92v12.869h-2.92zm8.372-.284q1.137 0 2.093.31t1.628.956q.697.62 1.06 1.576.387.93.387 2.197v8.114h-2.92V9.199q0-1.576-.775-2.325-.749-.776-2.404-.776-1.24 0-2.273.543a4.8 4.8 0 0 0-1.654 1.37 3.5 3.5 0 0 0-.75 1.809l-.026-1.396a5.5 5.5 0 0 1 .569-1.809 5.4 5.4 0 0 1 1.163-1.55 5.2 5.2 0 0 1 1.705-1.085 6.1 6.1 0 0 1 2.197-.388m10.362 0q1.137 0 2.067.31a4.4 4.4 0 0 1 1.654.956q.698.62 1.085 1.576.388.93.388 2.197v8.114h-2.946V9.199q0-1.576-.775-2.325-.75-.776-2.403-.776-1.24 0-2.274.543a4.7 4.7 0 0 0-1.68 1.37 3.6 3.6 0 0 0-.723 1.809l-.052-1.448a5.2 5.2 0 0 1 .594-1.783 6 6 0 0 1 1.189-1.524 5.5 5.5 0 0 1 1.731-1.085 5.8 5.8 0 0 1 2.145-.388M73.026 12.507h2.817a4.8 4.8 0 0 1-1.06 2.352q-.825 1.006-2.222 1.602-1.395.568-3.36.568-2.247 0-3.979-.8-1.731-.828-2.739-2.327-.982-1.498-.982-3.566 0-2.041.956-3.566.982-1.524 2.688-2.351t3.954-.827q2.3 0 3.85.827a4.98 4.98 0 0 1 2.326 2.429q.75 1.602.62 4.057H64.447q.13 1.085.724 1.938t1.602 1.344 2.377.49q1.5 0 2.507-.594 1.033-.62 1.37-1.576m-4.005-6.564q-1.783 0-2.92.853t-1.473 2.197h8.347q-.13-1.447-1.189-2.249-1.06-.8-2.765-.8M89.024 6.228l-9.458 9.07-.336-.879h9.949v2.326h-12.12v-2.326l9.51-9.096.362.905h-9.872V3.876h11.965zM90.033 3.876h3.1l5.247 12.352-2.533.517zm14.471 0-8.32 18.037h-3.076l3.566-7.054 4.703-10.983z"/></svg>
